svgs/sharp-light/browser.svg

<svg xmlns="http://www.w3.org/2000/svg" viewBox="0 0 512 512"><!--! Font Awesome Pro 6.6.0 by @fontawesome - https://fontawesome.com License - https://fontawesome.com/license (Commercial License) Copyright 2024 Fonticons, Inc. --><path d="M160 64l0 64 320 0 0-64L160 64zm-32 0L32 64l0 64 96 0 0-64zM32 160l0 288 448 0 0-288-336 0L32 160zM0 32l32 0 448 0 32 0 0 32 0 384 0 32-32 0L32 480 0 480l0-32L0 64 0 32z"/></svg>

<svg xmlns="http://www.w3.org/2000/svg" viewBox="0 0 512 512"><!--! Font Awesome Pro 6.5.2 by @fontawesome - https://fontawesome.com License - https://fontawesome.com/license (Commercial License) Copyright 2024 Fonticons, Inc. --><path d="M160 64v64H480V64H160zm-32 0H32v64h96V64zM32 160V448H480V160H144 32zM0 32H32 480h32V64 448v32H480 32 0V448 64 32z"/></svg>
